exports/number-of-new-hiv-infections-per-year_v1_850x600.svg

<svg xmlns="http://www.w3.org/2000/svg" version="1.1" style="background-color:#fff;-webkit-font-smoothing:antialiased" width="850" height="600" font-family="'Helvetica Neue',Helvetica,Arial,sans-serif" font-size="18" text-rendering="optimizeLegibility"><g class="ChartTab"><g class="HeaderView"><g opacity=".8" transform="matrix(.31 0 0 .31 770 15)"><a xmlns:xlink="http://www.w3.org/1999/xlink" xlink:href="https://ourworldindata.org" target="_blank"><g><path fill="#1B2543" d="M0 0h211.2v130.1H0z"/><path fill="#E63912" d="M0 112.2h211.2v17.9H0z"/><g><path fill="none" d="M1.2 12.3h210.2v99.2H1.2z"/><path fill="#FFF" d="M37.8 32.2c0 12.7-7.7 19.4-17.1 19.4-9.7 0-16.6-7.5-16.6-18.7 0-11.7 7.3-19.3 17.1-19.3 10.1.1 16.6 7.7 16.6 18.6zm-28.6.6c0 7.9 4.3 14.9 11.8 14.9 7.5 0 11.8-6.9 11.8-15.3 0-7.3-3.8-14.9-11.8-14.9-7.9 0-11.8 7.3-11.8 15.3zM62.7 43.8c0 2.7.1 5.1.2 7.2h-4.3l-.3-4.3h-.1c-1.3 2.1-4 4.9-8.8 4.9-4.2 0-9.1-2.3-9.1-11.6V24.6h4.8v14.6c0 5 1.5 8.4 5.9 8.4 3.2 0 5.5-2.2 6.3-4.4.3-.7.4-1.6.4-2.5V24.6h4.8v19.2zM67.3 32.8c0-3.1-.1-5.8-.2-8.2h4.2l.2 5.2h.2c1.2-3.5 4.1-5.8 7.3-5.8.5 0 .9.1 1.4.2v4.5c-.5-.1-1-.2-1.6-.2-3.4 0-5.8 2.6-6.5 6.2-.1.7-.2 1.4-.2 2.2V51h-4.8V32.8zM95.4 51L86 14.2h5l4.4 18.6c1.1 4.6 2.1 9.2 2.7 12.7h.1c.6-3.7 1.8-8 3-12.8l4.9-18.5h5l4.5 18.7c1 4.4 2 8.7 2.6 12.6h.1c.8-4 1.8-8.1 3-12.7l4.9-18.5h4.9L120.6 51h-5L111 31.9c-1.1-4.7-1.9-8.3-2.4-12h-.1c-.7 3.7-1.5 7.3-2.8 12L100.4 51h-5zM154.9 37.6c0 9.8-6.8 14-13.2 14-7.2 0-12.7-5.2-12.7-13.6 0-8.8 5.8-14 13.1-14 7.7 0 12.8 5.5 12.8 13.6zm-21 .3c0 5.8 3.3 10.1 8 10.1 4.6 0 8-4.3 8-10.3 0-4.5-2.2-10.1-7.9-10.1s-8.1 5.2-8.1 10.3zM158.2 32.8c0-3.1-.1-5.8-.2-8.2h4.2l.2 5.2h.2c1.2-3.5 4.1-5.8 7.3-5.8.5 0 .9.1 1.4.2v4.5c-.5-.1-1-.2-1.6-.2-3.4 0-5.8 2.6-6.5 6.2-.1.7-.2 1.4-.2 2.2V51h-4.8V32.8zM173.5 12.3h4.8V51h-4.8V12.3zM206.5 12.3v31.9c0 2.3.1 5 .2 6.8h-4.3l-.2-4.6h-.2c-1.5 2.9-4.7 5.2-9 5.2-6.4 0-11.3-5.4-11.3-13.4-.1-8.8 5.4-14.2 11.9-14.2 4 0 6.8 1.9 8 4h.1V12.3h4.8zm-4.8 23.1c0-.6-.1-1.4-.2-2a7 7 0 00-6.9-5.6c-5 0-7.9 4.4-7.9 10.2 0 5.3 2.6 9.8 7.8 9.8 3.2 0 6.2-2.1 7.1-5.7.2-.7.2-1.3.2-2.1v-4.6zM42.8 64c.1 1.6-1.1 2.9-3.1 2.9-1.7 0-2.9-1.3-2.9-2.9 0-1.7 1.3-3 3-3 1.9 0 3 1.3 3 3zm-5.4 33.8V71.4h4.8v26.4h-4.8zM47.5 78.6c0-2.7-.1-5-.2-7.1h4.3l.3 4.4h.1c1.3-2.5 4.4-5 8.8-5 3.7 0 9.4 2.2 9.4 11.2v15.8h-4.8V82.6c0-4.3-1.6-7.8-6.1-7.8-3.2 0-5.6 2.2-6.5 4.9-.2.6-.3 1.4-.3 2.2v15.9h-4.8V78.6zM84 61.6c2.9-.4 6.3-.8 10.1-.8 6.8 0 11.7 1.6 14.9 4.6 3.3 3 5.2 7.3 5.2 13.2 0 6-1.9 10.9-5.3 14.3-3.4 3.4-9.1 5.3-16.3 5.3-3.4 0-6.2-.2-8.6-.4V61.6zm4.8 32.5c1.2.2 3 .3 4.8.3 10.2 0 15.7-5.7 15.7-15.6.1-8.7-4.9-14.2-14.9-14.2-2.5 0-4.3.2-5.6.5v29zM132.1 97.8l-.4-3.3h-.2a9.79 9.79 0 01-8.1 3.9c-5.4 0-8.1-3.8-8.1-7.6 0-6.4 5.7-9.9 15.9-9.8v-.5c0-2.2-.6-6.1-6-6.1-2.5 0-5 .8-6.9 2l-1.1-3.2c2.2-1.4 5.4-2.3 8.7-2.3 8.1 0 10.1 5.5 10.1 10.8v9.9c0 2.3.1 4.5.4 6.3h-4.3zm-.7-13.4c-5.3-.1-11.2.8-11.2 5.9 0 3.1 2.1 4.6 4.5 4.6 3.4 0 5.6-2.2 6.4-4.4.2-.5.3-1 .3-1.5v-4.6zM146.6 63.9v7.6h6.9v3.7h-6.9v14.2c0 3.3.9 5.1 3.6 5.1 1.3 0 2.2-.2 2.8-.3l.2 3.6c-.9.4-2.4.7-4.3.7-2.2 0-4-.7-5.2-2-1.4-1.4-1.9-3.8-1.9-6.9V75.1h-4.1v-3.7h4.1v-6.3l4.8-1.2zM171.4 97.8l-.4-3.3h-.2a9.79 9.79 0 01-8.1 3.9c-5.4 0-8.1-3.8-8.1-7.6 0-6.4 5.7-9.9 15.9-9.8v-.5c0-2.2-.6-6.1-6-6.1-2.5 0-5 .8-6.9 2l-1.1-3.2c2.2-1.4 5.4-2.3 8.7-2.3 8.1 0 10.1 5.5 10.1 10.8v9.9c0 2.3.1 4.5.4 6.3h-4.3zm-.7-13.4c-5.3-.1-11.2.8-11.2 5.9 0 3.1 2.1 4.6 4.5 4.6 3.4 0 5.6-2.2 6.4-4.4.2-.5.3-1 .3-1.5v-4.6z"/></g></g></a></g><a href="https://ourworldindata.org/grapher/number-of-new-hiv-infections-per-year" target="_blank"><text font-size="27" x="15" y="36.6" fill="#555"><tspan x="15" y="36.6">Number of new HIV infections per year</tspan></text></a></g><g class="LineChart"><defs><clipPath id="a"><path d="M68.97 0h830v963h-830z"/></clipPath></defs><g class="AxisBoxView"><g class="HorizontalAxis" fill="#666" text-anchor="middle" font-size="16.2"><text x="79" y="556.5">1990</text><text x="186" y="556.5">1995</text><text x="293" y="556.5">2000</text><text x="400.1" y="556.5">2005</text><text x="507.1" y="556.5">2010</text><text x="614.2" y="556.5">2015</text></g><g class="VerticalAxis" fill="#666" dominant-baseline="middle" text-anchor="end" font-size="16.2"><text x="73.97" y="535.3">0</text><text x="73.97" y="427">200,000</text><text x="73.97" y="318.7">400,000</text><text x="73.97" y="210.4">600,000</text><text x="73.97" y="102.1">800,000</text></g><g class="AxisGridLines"><path stroke="#ccc" d="M78.97 535.3h535.19"/><path stroke="#ddd" stroke-dasharray="3,2" d="M78.97 427h535.19M78.97 318.7h535.19M78.97 210.4h535.19M78.97 102.1h535.19"/></g><g class="AxisGridLines" stroke="#ddd" stroke-dasharray="3,2"><path d="M79 535.3V75M186 535.3V75M293 535.3V75M400.1 535.3V75M507.1 535.3V75M614.2 535.3V75"/></g></g><g clip-path="url(#a)"><g class="HeightedLegend clickable"><g class="legendMark"><path fill="#34983f" d="M624.16 328.25h10v2.5h-10z"/><text font-size="14.4" x="639.2" y="333.8" fill="#333"><tspan x="639.16" y="333.82">South Africa</tspan></text></g><g class="legendMark"><path fill="#ca2628" d="M624.16 398.65h10v2.5h-10z"/><text font-size="14.4" x="639.2" y="404.2" fill="#333"><tspan x="639.16" y="404.22">Nigeria</tspan></text></g><g class="legendMark"><path fill="#3360a9" d="M624.16 525.95h10v2.5h-10z"/><text font-size="14.4" x="639.2" y="531.5" fill="#333"><tspan x="639.16" y="531.52">Democratic Republic of Congo</tspan></text></g></g><g class="Lines"><g class="key-Democratic-Republic-of-Congo_0"><path stroke="#3360a9" stroke-linecap="round" d="M79 515l21-1 22-2 21-2 22-2 21-2 21-1 22-1h43l21 1 22 1 21 1 21 2 22 2 21 2 22 2 21 2 21 3 22 2 21 1h22l21 1 21 1 22 1 21 1" fill="none" stroke-width="1.5"/><g fill="#3360a9"><circle cx="79" cy="515" r="2"/><circle cx="100" cy="514" r="2"/><circle cx="122" cy="512" r="2"/><circle cx="143" cy="510" r="2"/><circle cx="165" cy="508" r="2"/><circle cx="186" cy="506" r="2"/><circle cx="207" cy="505" r="2"/><circle cx="229" cy="504" r="2"/><circle cx="250" cy="504" r="2"/><circle cx="272" cy="504" r="2"/><circle cx="293" cy="505" r="2"/><circle cx="315" cy="506" r="2"/><circle cx="336" cy="507" r="2"/><circle cx="357" cy="509" r="2"/><circle cx="379" cy="511" r="2"/><circle cx="400" cy="513" r="2"/><circle cx="422" cy="515" r="2"/><circle cx="443" cy="517" r="2"/><circle cx="464" cy="520" r="2"/><circle cx="486" cy="522" r="2"/><circle cx="507" cy="523" r="2"/><circle cx="529" cy="523" r="2"/><circle cx="550" cy="524" r="2"/><circle cx="571" cy="525" r="2"/><circle cx="593" cy="526" r="2"/><circle cx="614" cy="527" r="2"/></g></g><g class="key-Nigeria_0"><path stroke="#ca2628" stroke-linecap="round" d="M79 449l21-11 22-22 21-21 22-17 21-16 21-11 22-5 21 5 22 6 21 5 22 5 21 11h21l22 6 21 5 22 6h128l21 5h43" fill="none" stroke-width="1.5"/><g fill="#ca2628"><circle cx="79" cy="449" r="2"/><circle cx="100" cy="438" r="2"/><circle cx="122" cy="416" r="2"/><circle cx="143" cy="395" r="2"/><circle cx="165" cy="378" r="2"/><circle cx="186" cy="362" r="2"/><circle cx="207" cy="351" r="2"/><circle cx="229" cy="346" r="2"/><circle cx="250" cy="351" r="2"/><circle cx="272" cy="357" r="2"/><circle cx="293" cy="362" r="2"/><circle cx="315" cy="367" r="2"/><circle cx="336" cy="378" r="2"/><circle cx="357" cy="378" r="2"/><circle cx="379" cy="384" r="2"/><circle cx="400" cy="389" r="2"/><circle cx="422" cy="395" r="2"/><circle cx="443" cy="395" r="2"/><circle cx="464" cy="395" r="2"/><circle cx="486" cy="395" r="2"/><circle cx="507" cy="395" r="2"/><circle cx="529" cy="395" r="2"/><circle cx="550" cy="395" r="2"/><circle cx="571" cy="400" r="2"/><circle cx="593" cy="400" r="2"/><circle cx="614" cy="400" r="2"/></g></g><g class="key-South-Africa_0"><path stroke="#34983f" stroke-linecap="round" d="M79 484l21-35 22-49 21-60 22-75 21-71 21-65 22-43 21-11 22 5 21 28 22 32 21 38 21 38 22 38 21 27 22 27 21 16 21 11 22 16 21-5 22-6 21-5h21l22-5h21" fill="none" stroke-width="1.5"/><g fill="#34983f"><circle cx="79" cy="484" r="2"/><circle cx="100" cy="449" r="2"/><circle cx="122" cy="400" r="2"/><circle cx="143" cy="340" r="2"/><circle cx="165" cy="265" r="2"/><circle cx="186" cy="194" r="2"/><circle cx="207" cy="129" r="2"/><circle cx="229" cy="86" r="2"/><circle cx="250" cy="75" r="2"/><circle cx="272" cy="80" r="2"/><circle cx="293" cy="108" r="2"/><circle cx="315" cy="140" r="2"/><circle cx="336" cy="178" r="2"/><circle cx="357" cy="216" r="2"/><circle cx="379" cy="254" r="2"/><circle cx="400" cy="281" r="2"/><circle cx="422" cy="308" r="2"/><circle cx="443" cy="324" r="2"/><circle cx="464" cy="335" r="2"/><circle cx="486" cy="351" r="2"/><circle cx="507" cy="346" r="2"/><circle cx="529" cy="340" r="2"/><circle cx="550" cy="335" r="2"/><circle cx="571" cy="335" r="2"/><circle cx="593" cy="330" r="2"/><circle cx="614" cy="330" r="2"/></g></g></g></g></g><g class="SourcesFooter" fill="#777"><g class="clickable" fill="#777"><text font-size="12.6" x="15" y="581.6"><tspan x="15" y="581.58">Source: World Bank – WDI</tspan></text></g><text font-size="12.6" x="598.5" y="581.6"><tspan x="598.5" y="581.58"><a target="_blank" href="https://ourworldindata.org/hiv-aids/" fill="#777">OurWorldInData.org/hiv-aids/</a> • <a href="http://creativecommons.org/licenses/by-sa/4.0/deed.en_US" target="_blank" fill="#777">CC BY-SA</a></tspan></text></g></g></svg>

<svg xmlns="http://www.w3.org/2000/svg" version="1.1" style="font-family: 'Helvetica Neue', Helvetica, Arial, sans-serif; font-size: 18px; background-color: white; text-rendering: optimizeLegibility; -webkit-font-smoothing: antialiased;" width="850" height="600"><g class="ChartTab"><g class="HeaderView"><g opacity="0.8" transform="translate(770, 15) scale(0.31)"><a xmlns:xlink="http://www.w3.org/1999/xlink" xlink:href="https://ourworldindata.org" target="_blank"><g><rect x="0" y="0" fill="#1B2543" width="211.2" height="130.1"/><rect x="0" y="112.2" fill="#E63912" width="211.2" height="17.9"/><g><rect x="1.2" y="12.3" fill="none" width="210.2" height="99.2"/><path fill="#FFFFFF" d="M37.8,32.2c0,12.7-7.7,19.4-17.1,19.4c-9.7,0-16.6-7.5-16.6-18.7c0-11.7,7.3-19.3,17.1-19.3 C31.3,13.7,37.8,21.3,37.8,32.2z M9.2,32.8c0,7.9,4.3,14.9,11.8,14.9c7.5,0,11.8-6.9,11.8-15.3c0-7.3-3.8-14.9-11.8-14.9 C13.1,17.5,9.2,24.8,9.2,32.8z"/><path fill="#FFFFFF" d="M62.7,43.8c0,2.7,0.1,5.1,0.2,7.2h-4.3l-0.3-4.3h-0.1c-1.3,2.1-4,4.9-8.8,4.9c-4.2,0-9.1-2.3-9.1-11.6 V24.6h4.8v14.6c0,5,1.5,8.4,5.9,8.4c3.2,0,5.5-2.2,6.3-4.4c0.3-0.7,0.4-1.6,0.4-2.5V24.6h4.8V43.8z"/><path fill="#FFFFFF" d="M67.3,32.8c0-3.1-0.1-5.8-0.2-8.2h4.2l0.2,5.2h0.2c1.2-3.5,4.1-5.8,7.3-5.8c0.5,0,0.9,0.1,1.4,0.2v4.5 c-0.5-0.1-1-0.2-1.6-0.2c-3.4,0-5.8,2.6-6.5,6.2c-0.1,0.7-0.2,1.4-0.2,2.2V51h-4.8V32.8z"/><path fill="#FFFFFF" d="M95.4,51l-9.4-36.8h5l4.4,18.6c1.1,4.6,2.1,9.2,2.7,12.7h0.1c0.6-3.7,1.8-8,3-12.8l4.9-18.5h5l4.5,18.7 c1,4.4,2,8.7,2.6,12.6h0.1c0.8-4,1.8-8.1,3-12.7l4.9-18.5h4.9L120.6,51h-5L111,31.9c-1.1-4.7-1.9-8.3-2.4-12h-0.1 c-0.7,3.7-1.5,7.3-2.8,12L100.4,51H95.4z"/><path fill="#FFFFFF" d="M154.9,37.6c0,9.8-6.8,14-13.2,14c-7.2,0-12.7-5.2-12.7-13.6c0-8.8,5.8-14,13.1-14 C149.8,24,154.9,29.5,154.9,37.6z M133.9,37.9c0,5.8,3.3,10.1,8,10.1c4.6,0,8-4.3,8-10.3c0-4.5-2.2-10.1-7.9-10.1 C136.3,27.6,133.9,32.8,133.9,37.9z"/><path fill="#FFFFFF" d="M158.2,32.8c0-3.1-0.1-5.8-0.2-8.2h4.2l0.2,5.2h0.2c1.2-3.5,4.1-5.8,7.3-5.8c0.5,0,0.9,0.1,1.4,0.2v4.5 c-0.5-0.1-1-0.2-1.6-0.2c-3.4,0-5.8,2.6-6.5,6.2c-0.1,0.7-0.2,1.4-0.2,2.2V51h-4.8V32.8z"/><path fill="#FFFFFF" d="M173.5,12.3h4.8V51h-4.8V12.3z"/><path fill="#FFFFFF" d="M206.5,12.3v31.9c0,2.3,0.1,5,0.2,6.8h-4.3l-0.2-4.6H202c-1.5,2.9-4.7,5.2-9,5.2 c-6.4,0-11.3-5.4-11.3-13.4c-0.1-8.8,5.4-14.2,11.9-14.2c4,0,6.8,1.9,8,4h0.1V12.3H206.5z M201.7,35.4c0-0.6-0.1-1.4-0.2-2 c-0.7-3.1-3.3-5.6-6.9-5.6c-5,0-7.9,4.4-7.9,10.2c0,5.3,2.6,9.8,7.8,9.8c3.2,0,6.2-2.1,7.1-5.7c0.2-0.7,0.2-1.3,0.2-2.1V35.4z"/><path fill="#FFFFFF" d="M42.8,64c0.1,1.6-1.1,2.9-3.1,2.9c-1.7,0-2.9-1.3-2.9-2.9c0-1.7,1.3-3,3-3C41.7,61,42.8,62.3,42.8,64z M37.4,97.8V71.4h4.8v26.4H37.4z"/><path fill="#FFFFFF" d="M47.5,78.6c0-2.7-0.1-5-0.2-7.1h4.3l0.3,4.4h0.1c1.3-2.5,4.4-5,8.8-5c3.7,0,9.4,2.2,9.4,11.2v15.8h-4.8 V82.6c0-4.3-1.6-7.8-6.1-7.8c-3.2,0-5.6,2.2-6.5,4.9c-0.2,0.6-0.3,1.4-0.3,2.2v15.9h-4.8V78.6z"/><path fill="#FFFFFF" d="M84,61.6c2.9-0.4,6.3-0.8,10.1-0.8c6.8,0,11.7,1.6,14.9,4.6c3.3,3,5.2,7.3,5.2,13.2c0,6-1.9,10.9-5.3,14.3 c-3.4,3.4-9.1,5.3-16.3,5.3c-3.4,0-6.2-0.2-8.6-0.4V61.6z M88.8,94.1c1.2,0.2,3,0.3,4.8,0.3c10.2,0,15.7-5.7,15.7-15.6 c0.1-8.7-4.9-14.2-14.9-14.2c-2.5,0-4.3,0.2-5.6,0.5V94.1z"/><path fill="#FFFFFF" d="M132.1,97.8l-0.4-3.3h-0.2c-1.5,2.1-4.3,3.9-8.1,3.9c-5.4,0-8.1-3.8-8.1-7.6c0-6.4,5.7-9.9,15.9-9.8v-0.5 c0-2.2-0.6-6.1-6-6.1c-2.5,0-5,0.8-6.9,2l-1.1-3.2c2.2-1.4,5.4-2.3,8.7-2.3c8.1,0,10.1,5.5,10.1,10.8v9.9c0,2.3,0.1,4.5,0.4,6.3 H132.1z M131.4,84.4c-5.3-0.1-11.2,0.8-11.2,5.9c0,3.1,2.1,4.6,4.5,4.6c3.4,0,5.6-2.2,6.4-4.4c0.2-0.5,0.3-1,0.3-1.5V84.4z"/><path fill="#FFFFFF" d="M146.6,63.9v7.6h6.9v3.7h-6.9v14.2c0,3.3,0.9,5.1,3.6,5.1c1.3,0,2.2-0.2,2.8-0.3l0.2,3.6 c-0.9,0.4-2.4,0.7-4.3,0.7c-2.2,0-4-0.7-5.2-2c-1.4-1.4-1.9-3.8-1.9-6.9V75.1h-4.1v-3.7h4.1v-6.3L146.6,63.9z"/><path fill="#FFFFFF" d="M171.4,97.8l-0.4-3.3h-0.2c-1.5,2.1-4.3,3.9-8.1,3.9c-5.4,0-8.1-3.8-8.1-7.6c0-6.4,5.7-9.9,15.9-9.8v-0.5 c0-2.2-0.6-6.1-6-6.1c-2.5,0-5,0.8-6.9,2l-1.1-3.2c2.2-1.4,5.4-2.3,8.7-2.3c8.1,0,10.1,5.5,10.1,10.8v9.9c0,2.3,0.1,4.5,0.4,6.3 H171.4z M170.7,84.4c-5.3-0.1-11.2,0.8-11.2,5.9c0,3.1,2.1,4.6,4.5,4.6c3.4,0,5.6-2.2,6.4-4.4c0.2-0.5,0.3-1,0.3-1.5V84.4z"/></g></g></a></g><a href="https://ourworldindata.org/grapher/number-of-new-hiv-infections-per-year" target="_blank"><text font-size="27.00" x="15.0" y="36.6" fill="#555"><tspan x="15" y="36.6">Number of new HIV infections per year</tspan></text></a></g><g class="LineChart"><defs><clipPath id="boundsClip-303"><rect x="68.968" y="0" width="830" height="963"></rect></clipPath></defs><g class="AxisBoxView"><g class="HorizontalAxis"><text x="79" y="556.5" fill="#666" text-anchor="middle" font-size="16.2">1990</text><text x="186" y="556.5" fill="#666" text-anchor="middle" font-size="16.2">1995</text><text x="293" y="556.5" fill="#666" text-anchor="middle" font-size="16.2">2000</text><text x="400.1" y="556.5" fill="#666" text-anchor="middle" font-size="16.2">2005</text><text x="507.1" y="556.5" fill="#666" text-anchor="middle" font-size="16.2">2010</text><text x="614.2" y="556.5" fill="#666" text-anchor="middle" font-size="16.2">2015</text></g><g class="VerticalAxis"><text x="73.97" y="535.3" fill="#666" dominant-baseline="middle" text-anchor="end" font-size="16.2">0</text><text x="73.97" y="427" fill="#666" dominant-baseline="middle" text-anchor="end" font-size="16.2">200,000</text><text x="73.97" y="318.7" fill="#666" dominant-baseline="middle" text-anchor="end" font-size="16.2">400,000</text><text x="73.97" y="210.4" fill="#666" dominant-baseline="middle" text-anchor="end" font-size="16.2">600,000</text><text x="73.97" y="102.1" fill="#666" dominant-baseline="middle" text-anchor="end" font-size="16.2">800,000</text></g><g class="AxisGridLines"><line x1="78.97" y1="535.3" x2="614.16" y2="535.3" stroke="#ccc"></line><line x1="78.97" y1="427" x2="614.16" y2="427" stroke="#ddd" stroke-dasharray="3,2"></line><line x1="78.97" y1="318.7" x2="614.16" y2="318.7" stroke="#ddd" stroke-dasharray="3,2"></line><line x1="78.97" y1="210.4" x2="614.16" y2="210.4" stroke="#ddd" stroke-dasharray="3,2"></line><line x1="78.97" y1="102.1" x2="614.16" y2="102.1" stroke="#ddd" stroke-dasharray="3,2"></line></g><g class="AxisGridLines"><line x1="79" y1="535.30" x2="79" y2="75.00" stroke="#ddd" stroke-dasharray="3,2"></line><line x1="186" y1="535.30" x2="186" y2="75.00" stroke="#ddd" stroke-dasharray="3,2"></line><line x1="293" y1="535.30" x2="293" y2="75.00" stroke="#ddd" stroke-dasharray="3,2"></line><line x1="400.1" y1="535.30" x2="400.1" y2="75.00" stroke="#ddd" stroke-dasharray="3,2"></line><line x1="507.1" y1="535.30" x2="507.1" y2="75.00" stroke="#ddd" stroke-dasharray="3,2"></line><line x1="614.2" y1="535.30" x2="614.2" y2="75.00" stroke="#ddd" stroke-dasharray="3,2"></line></g></g><g clip-path="url(#boundsClip-303)"><g class="HeightedLegend clickable"><g class="legendMark"><rect x="624.16" y="322.3" width="93.76800000000001" height="14.4" fill="#fff" opacity="0"></rect><rect x="624.16" y="328.25" width="10" height="2.5" fill="#34983f"></rect><text font-size="14.40" x="639.2" y="333.8" fill="#333"><tspan x="639.16" y="333.82">South Africa</tspan></text></g><g class="legendMark"><rect x="624.16" y="392.7" width="60.648" height="14.4" fill="#fff" opacity="0"></rect><rect x="624.16" y="398.65" width="10" height="2.5" fill="#ca2628"></rect><text font-size="14.40" x="639.2" y="404.2" fill="#333"><tspan x="639.16" y="404.21999999999997">Nigeria</tspan></text></g><g class="legendMark"><rect x="624.16" y="520" width="210.84000000000003" height="14.4" fill="#fff" opacity="0"></rect><rect x="624.16" y="525.95" width="10" height="2.5" fill="#3360a9"></rect><text font-size="14.40" x="639.2" y="531.5" fill="#333"><tspan x="639.16" y="531.52">Democratic Republic of Congo</tspan></text></g></g><g class="Lines"><rect x="79" y="75" width="535" height="460" fill="rgba(255,255,255,0)" opacity="0"></rect><g class="key-Democratic-Republic-of-Congo_0"><path stroke="#3360a9" stroke-linecap="round" d="M79 515L100 514L122 512L143 510L165 508L186 506L207 505L229 504L250 504L272 504L293 505L315 506L336 507L357 509L379 511L400 513L422 515L443 517L464 520L486 522L507 523L529 523L550 524L571 525L593 526L614 527" fill="none" stroke-width="1.5"></path><g fill="#3360a9"><circle cx="79" cy="515" r="2"></circle><circle cx="100" cy="514" r="2"></circle><circle cx="122" cy="512" r="2"></circle><circle cx="143" cy="510" r="2"></circle><circle cx="165" cy="508" r="2"></circle><circle cx="186" cy="506" r="2"></circle><circle cx="207" cy="505" r="2"></circle><circle cx="229" cy="504" r="2"></circle><circle cx="250" cy="504" r="2"></circle><circle cx="272" cy="504" r="2"></circle><circle cx="293" cy="505" r="2"></circle><circle cx="315" cy="506" r="2"></circle><circle cx="336" cy="507" r="2"></circle><circle cx="357" cy="509" r="2"></circle><circle cx="379" cy="511" r="2"></circle><circle cx="400" cy="513" r="2"></circle><circle cx="422" cy="515" r="2"></circle><circle cx="443" cy="517" r="2"></circle><circle cx="464" cy="520" r="2"></circle><circle cx="486" cy="522" r="2"></circle><circle cx="507" cy="523" r="2"></circle><circle cx="529" cy="523" r="2"></circle><circle cx="550" cy="524" r="2"></circle><circle cx="571" cy="525" r="2"></circle><circle cx="593" cy="526" r="2"></circle><circle cx="614" cy="527" r="2"></circle></g></g><g class="key-Nigeria_0"><path stroke="#ca2628" stroke-linecap="round" d="M79 449L100 438L122 416L143 395L165 378L186 362L207 351L229 346L250 351L272 357L293 362L315 367L336 378L357 378L379 384L400 389L422 395L443 395L464 395L486 395L507 395L529 395L550 395L571 400L593 400L614 400" fill="none" stroke-width="1.5"></path><g fill="#ca2628"><circle cx="79" cy="449" r="2"></circle><circle cx="100" cy="438" r="2"></circle><circle cx="122" cy="416" r="2"></circle><circle cx="143" cy="395" r="2"></circle><circle cx="165" cy="378" r="2"></circle><circle cx="186" cy="362" r="2"></circle><circle cx="207" cy="351" r="2"></circle><circle cx="229" cy="346" r="2"></circle><circle cx="250" cy="351" r="2"></circle><circle cx="272" cy="357" r="2"></circle><circle cx="293" cy="362" r="2"></circle><circle cx="315" cy="367" r="2"></circle><circle cx="336" cy="378" r="2"></circle><circle cx="357" cy="378" r="2"></circle><circle cx="379" cy="384" r="2"></circle><circle cx="400" cy="389" r="2"></circle><circle cx="422" cy="395" r="2"></circle><circle cx="443" cy="395" r="2"></circle><circle cx="464" cy="395" r="2"></circle><circle cx="486" cy="395" r="2"></circle><circle cx="507" cy="395" r="2"></circle><circle cx="529" cy="395" r="2"></circle><circle cx="550" cy="395" r="2"></circle><circle cx="571" cy="400" r="2"></circle><circle cx="593" cy="400" r="2"></circle><circle cx="614" cy="400" r="2"></circle></g></g><g class="key-South-Africa_0"><path stroke="#34983f" stroke-linecap="round" d="M79 484L100 449L122 400L143 340L165 265L186 194L207 129L229 86L250 75L272 80L293 108L315 140L336 178L357 216L379 254L400 281L422 308L443 324L464 335L486 351L507 346L529 340L550 335L571 335L593 330L614 330" fill="none" stroke-width="1.5"></path><g fill="#34983f"><circle cx="79" cy="484" r="2"></circle><circle cx="100" cy="449" r="2"></circle><circle cx="122" cy="400" r="2"></circle><circle cx="143" cy="340" r="2"></circle><circle cx="165" cy="265" r="2"></circle><circle cx="186" cy="194" r="2"></circle><circle cx="207" cy="129" r="2"></circle><circle cx="229" cy="86" r="2"></circle><circle cx="250" cy="75" r="2"></circle><circle cx="272" cy="80" r="2"></circle><circle cx="293" cy="108" r="2"></circle><circle cx="315" cy="140" r="2"></circle><circle cx="336" cy="178" r="2"></circle><circle cx="357" cy="216" r="2"></circle><circle cx="379" cy="254" r="2"></circle><circle cx="400" cy="281" r="2"></circle><circle cx="422" cy="308" r="2"></circle><circle cx="443" cy="324" r="2"></circle><circle cx="464" cy="335" r="2"></circle><circle cx="486" cy="351" r="2"></circle><circle cx="507" cy="346" r="2"></circle><circle cx="529" cy="340" r="2"></circle><circle cx="550" cy="335" r="2"></circle><circle cx="571" cy="335" r="2"></circle><circle cx="593" cy="330" r="2"></circle><circle cx="614" cy="330" r="2"></circle></g></g></g></g></g><g style="fill: #777;" class="SourcesFooter"><g style="fill: #777;" class="clickable"><text font-size="12.60" x="15.0" y="581.6"><tspan x="15" y="581.58">Source: World Bank – WDI</tspan></text></g><text font-size="12.60" x="598.5" y="581.6"><tspan x="598.498" y="581.58"><a target='_blank' style='fill: #777;' href='https://ourworldindata.org/hiv-aids/'>OurWorldInData.org/hiv-aids/</a> • <a style="fill: #777;" href="http://creativecommons.org/licenses/by-sa/4.0/deed.en_US" target="_blank">CC BY-SA</a></tspan></text></g></g></svg>
